X:696
T:Ivy Leaf, The
R:reel
S:BBC recording of Feakle Session 1987: Noel Hill & Tony Linnane
H:Usually in Amix, #190 & #194
Z:id:hn-reel-696
M:C|
K:Emix
~E3B GEBE|EBGB AFDF|~E3B GEBE|EDB,C DEFD|
EB~B2 GB~B2|eB~B2 AFDF|~E3B GEBE|EDB,C DEFA||
Beed BAFA|d2dB ADFA|B2ed BAFE|EDB,C DEFA|
Beed BAFA|d2dB AFDF|~E3F =GFGA|(3Bcd ec dBAF||
